static/img/gem.svg

<svg preserveAspectRatio="none" version="1.1" viewBox="0 0 1024 1024" xmlns="http://www.w3.org/2000/svg">
<g>
<g>
<path d="m320.9 290.4-34.25 34.25v460.4h-0.05l191.15 191.15 16.55-16.5v-0.05l-173.4-208.85v-24.05-206.2-230.15m382.2-0.05v27.3 270.9 162.3l-0.25 0.3 34.5-34.5v-477.65l-182.55-182.55-25.05 25.05 173.35 208.85z" fill="#0F52BA"/>
<path d="m529.75 81.5 25.05-25.05-42.8-42.8-225.35 225.35v85.65l62.15-62.15-0.05-0.05-27.85 27.9 191.1-230.2 17.75 21.35m207.6 703.6v-68.45l-34.5 34.5-190.85 229.85-17.7-21.3-16.55 16.5 34.25 34.25 225.35-225.35m-34.5-33.95 0.25-0.3-48.4 48.4 48.15-48.1z" fill="#4782DE"/>
<path d="m703.1 588.55v-270.9l-382.2 202.9v206.2l382.2-138.2z" fill="#69A0F5"/>
</g>
</g>
</svg>

<svg xmlns="http://www.w3.org/2000/svg" version="1.1" xmlns:xlink="http://www.w3.org/1999/xlink" preserveAspectRatio="none" x="0px" y="0px" width="1024px" height="1024px" viewBox="0 0 1024 1024">
<defs/>

<g id="Layer_1">
<g transform="matrix( 1, 0, 0, 1, 0,0) ">
<g>
<g>

<path fill="#0F52BA" stroke="none" d="
M 320.9 290.4
L 286.65 324.65 286.65 785.05 286.6 785.05 477.75 976.2 494.3 959.7 494.3 959.65 320.9 750.8 320.9 726.75 320.9 520.55 320.9 290.4
M 703.1 290.35
L 703.1 317.65 703.1 588.55 703.1 750.85 702.85 751.15 737.35 716.65 737.35 239 554.8 56.45 529.75 81.5 703.1 290.35 Z"/>

<path fill="#4782DE" stroke="none" d="
M 529.75 81.5
L 554.8 56.45 512 13.65 286.65 239 286.65 324.65 320.9 290.4 348.8 262.5 348.75 262.45 320.9 290.35 512 60.15 529.75 81.5
M 737.35 785.1
L 737.35 716.65 702.85 751.15 512 981 494.3 959.7 477.75 976.2 512 1010.45 737.35 785.1
M 702.85 751.15
L 703.1 750.85 654.7 799.25 654.7 799.25 702.85 751.15 Z"/>

<path fill="#69A0F5" stroke="none" d="
M 703.1 588.55
L 703.1 317.65 320.9 520.55 320.9 726.75 703.1 588.55 Z"/>
</g>
</g>
</g>
</g>
</svg>
